X:1
T:Title
L:1/8
M:4/4
I:linebreak $
K:D
V:1 treble nm="Voice"
V:1
"A" EECE A,ECE |1"D" AGFE DFAd |"A" c2 B2"D" AGFD :|2"D" AGFE D2 Ad |:"D" fdcd"A" gece | %5
"D" fdAF DFAd |"G" BGGF"A" E2 ed |1 cABc dcBA :|2 cABc"D" d2 z2 |] %9
